@extra/phlat-icons/symbolic/xfce4-workspaces.svg

<svg xmlns="http://www.w3.org/2000/svg" viewBox="0 0 16 16">
    <path d="M0 1v15h15V1zm1 1h13v13H1z" fill="#f1f2f2"/>
    <path d="M1 2h6v6H1z" opacity=".4" fill="#f1f2f2"/>
    <path d="M1 8h13v1H1zm7 1v6H7V9zm0-7v6H7V2z" fill="#f1f2f2"/>
</svg>

<?xml version="1.0" encoding="UTF-8" standalone="no"?>
<svg
   xmlns:dc="http://purl.org/dc/elements/1.1/"
   xmlns:cc="http://creativecommons.org/ns#"
   xmlns:rdf="http://www.w3.org/1999/02/22-rdf-syntax-ns#"
   xmlns:svg="http://www.w3.org/2000/svg"
   xmlns="http://www.w3.org/2000/svg"
   height="16"
   width="16"
   id="svg37"
   version="1.1"
   viewBox="0 0 16 16">
  <metadata
     id="metadata41">
    <rdf:RDF>
      <cc:Work
         rdf:about="">
        <dc:format>image/svg+xml</dc:format>
        <dc:type
           rdf:resource="http://purl.org/dc/dcmitype/StillImage" />
        <dc:title></dc:title>
      </cc:Work>
    </rdf:RDF>
  </metadata>
  <defs
     id="defs17" />
  <path
     id="path4518"
     d="M 0,1 V 16 H 15 V 1 Z M 1,2 H 14 V 15 H 1 Z"
     style="opacity:1;fill:#f1f2f2;stroke-width:0.53571427" />
  <path
     style="opacity:0.4;fill:#f1f2f2;stroke-width:0.42857143"
     id="path23"
     d="M 1,2 H 7.0000001 V 8 H 1 Z" />
  <path
     d="M 1,8 H 14 V 9 H 1 Z"
     id="path4488"
     style="opacity:1;fill:#f1f2f2;stroke-width:0.25753936" />
  <path
     style="opacity:1;fill:#f1f2f2;stroke-width:0.17496355"
     id="path4490"
     d="m 8,9 v 6 H 6.9999999 V 9 Z" />
  <path
     d="M 8,2 V 8 H 6.9999999 V 2 Z"
     id="path4492"
     style="opacity:1;fill:#f1f2f2;stroke-width:0.17496355" />
</svg>
